humanity-icon-theme/Humanity/devices/48/pda.svg

<?xml version="1.0" encoding="UTF-8" standalone="no"?>
<!-- Created with Inkscape (http://www.inkscape.org/) -->

<svg
   xmlns:svg="http://www.w3.org/2000/svg"
   xmlns="http://www.w3.org/2000/svg"
   xmlns:xlink="http://www.w3.org/1999/xlink"
   version="1.1"
   width="48"
   height="48"
   id="svg5490">
  <defs
     id="defs5492">
    <linearGradient
       id="linearGradient4760">
      <stop
         id="stop4762"
         style="stop-color:#b3b3b3;stop-opacity:1"
         offset="0" />
      <stop
         id="stop4764"
         style="stop-color:white;stop-opacity:1"
         offset="0.35480854" />
      <stop
         id="stop4766"
         style="stop-color:#f0f0f0;stop-opacity:1"
         offset="0.51390922" />
      <stop
         id="stop4768"
         style="stop-color:#999;stop-opacity:1"
         offset="1" />
    </linearGradient>
    <linearGradient
       id="linearGradient3921">
      <stop
         id="stop3923"
         style="stop-color:black;stop-opacity:1"
         offset="0" />
      <stop
         id="stop3925"
         style="stop-color:black;stop-opacity:0"
         offset="1" />
    </linearGradient>
    <linearGradient
       x1="22.487293"
       y1="2.0235677"
       x2="22.487293"
       y2="42.99675"
       id="linearGradient7693"
       xlink:href="#linearGradient3143"
       gradientUnits="userSpaceOnUse"
       gradientTransform="matrix(1.03421,0,0,1.0494669,0.74341675,-0.12366726)" />
    <linearGradient
       id="linearGradient3821">
      <stop
         id="stop3823"
         style="stop-color:#6c6c6c;stop-opacity:1"
         offset="0" />
      <stop
         id="stop3825"
         style="stop-color:#a8a8a8;stop-opacity:1"
         offset="1" />
    </linearGradient>
    <linearGradient
       id="linearGradient3143">
      <stop
         id="stop3145"
         style="stop-color:#e6e6e6;stop-opacity:1"
         offset="0" />
      <stop
         id="stop3147"
         style="stop-color:#afafaf;stop-opacity:1"
         offset="1" />
    </linearGradient>
    <linearGradient
       id="linearGradient3737">
      <stop
         id="stop3739"
         style="stop-color:#121214;stop-opacity:1"
         offset="0" />
      <stop
         id="stop3741"
         style="stop-color:#393e44;stop-opacity:1"
         offset="0.0932906" />
      <stop
         id="stop3743"
         style="stop-color:#50555b;stop-opacity:1"
         offset="0.50235617" />
      <stop
         id="stop3745"
         style="stop-color:#22272d;stop-opacity:1"
         offset="0.91142172" />
      <stop
         id="stop3747"
         style="stop-color:#303438;stop-opacity:1"
         offset="1" />
    </linearGradient>
    <linearGradient
       id="linearGradient9936">
      <stop
         id="stop9938"
         style="stop-color:#575757;stop-opacity:1"
         offset="0" />
      <stop
         id="stop9940"
         style="stop-color:#333;stop-opacity:1"
         offset="1" />
    </linearGradient>
    <linearGradient
       id="linearGradient6592-2-7">
      <stop
         id="stop6594-0-2"
         style="stop-color:white;stop-opacity:0.27450982"
         offset="0" />
      <stop
         id="stop6596-2-5"
         style="stop-color:white;stop-opacity:0"
         offset="1" />
    </linearGradient>
    <linearGradient
       x1="22"
       y1="45"
       x2="22"
       y2="2"
       id="linearGradient3881"
       xlink:href="#linearGradient3821"
       gradientUnits="userSpaceOnUse" />
    <linearGradient
       x1="12.9375"
       y1="8.4375"
       x2="15.25"
       y2="19.8125"
       id="linearGradient3884"
       xlink:href="#linearGradient6592-2-7"
       gradientUnits="userSpaceOnUse"
       gradientTransform="matrix(0.5714286,0,0,0.99999942,10.285715,3.0000016)" />
    <radialGradient
       cx="19.063108"
       cy="8.4179487"
       r="11"
       fx="19.063108"
       fy="8.4179487"
       id="radialGradient3888"
       xlink:href="#linearGradient9936"
       gradientUnits="userSpaceOnUse"
       gradientTransform="matrix(1.3636576,0,0,2.0985615,-7.8705182,-4.0976584)" />
    <linearGradient
       x1="13"
       y1="13"
       x2="35"
       y2="13"
       id="linearGradient3890"
       xlink:href="#linearGradient3737"
       gradientUnits="userSpaceOnUse"
       gradientTransform="matrix(1.1900136,0,0,1.9301623,-4.5603251,-5.0921114)" />
    <filter
       color-interpolation-filters="sRGB"
       id="filter3915">
      <feGaussianBlur
         stdDeviation="0.67"
         id="feGaussianBlur3917" />
    </filter>
    <radialGradient
       cx="26"
       cy="42.5"
       r="19"
       fx="26"
       fy="42.5"
       id="radialGradient3927"
       xlink:href="#linearGradient3921"
       gradientUnits="userSpaceOnUse"
       gradientTransform="matrix(1,0,0,0.18421053,0,34.671053)" />
    <linearGradient
       id="linearGradient4647">
      <stop
         id="stop4653"
         style="stop-color:#b3b3b3;stop-opacity:1"
         offset="0" />
      <stop
         id="stop4655"
         style="stop-color:white;stop-opacity:1"
         offset="0.40689188" />
      <stop
         id="stop4657"
         style="stop-color:#f0f0f0;stop-opacity:1"
         offset="0.58682591" />
      <stop
         id="stop4659"
         style="stop-color:#999;stop-opacity:1"
         offset="1" />
    </linearGradient>
    <radialGradient
       cx="12.424876"
       cy="38.049999"
       r="1.8182746"
       fx="12.424876"
       fy="38.049999"
       id="radialGradient4750"
       xlink:href="#linearGradient4647"
       gradientUnits="userSpaceOnUse" />
    <linearGradient
       x1="13"
       y1="37"
       x2="13"
       y2="40"
       id="linearGradient4758"
       xlink:href="#linearGradient4760"
       gradientUnits="userSpaceOnUse" />
    <linearGradient
       x1="13"
       y1="37"
       x2="13"
       y2="40"
       id="linearGradient4772"
       xlink:href="#linearGradient4760"
       gradientUnits="userSpaceOnUse"
       gradientTransform="translate(5,0)" />
    <linearGradient
       x1="13"
       y1="37"
       x2="13"
       y2="40"
       id="linearGradient4776"
       xlink:href="#linearGradient4760"
       gradientUnits="userSpaceOnUse"
       gradientTransform="translate(17,0)" />
    <linearGradient
       x1="13"
       y1="37"
       x2="13"
       y2="40"
       id="linearGradient4780"
       xlink:href="#linearGradient4760"
       gradientUnits="userSpaceOnUse"
       gradientTransform="translate(22,0)" />
  </defs>
  <g
     id="layer1">
    <path
       d="m 45,42.5 a 19,3.5 0 1 1 -38,0 19,3.5 0 1 1 38,0 z"
       transform="matrix(1.0526316,0,0,1.1428571,-3.3684208,-5.5714286)"
       id="path3919"
       style="opacity:0.4;fill:url(#radialGradient3927);fill-opacity:1;stroke:none" />
    <path
       d="m 9.9774449,2.5000012 28.0714271,0 c 0.818504,0 1.477444,0.6857968 1.477444,1.5376609 l 0,36.7500959 c 0,0.851863 -0.65894,1.53766 -1.477444,1.53766 0,0 -7.017856,2.17458 -14.035714,2.17458 -7.017856,0 -14.0357131,-2.17458 -14.0357131,-2.17458 -0.8185046,0 -1.4774445,-0.685797 -1.4774445,-1.53766 l 0,-36.7500959 c 0,-0.8518641 0.6589399,-1.5376609 1.4774445,-1.5376609 z"
       id="rect5508"
       style="fill:url(#linearGradient7693);fill-opacity:1;stroke:url(#linearGradient3881);stroke-width:1.00000083;stroke-linecap:round;stroke-linejoin:miter;stroke-miterlimit:4;stroke-opacity:1" />
    <path
       d="M 11.333334,4 36.666667,4 C 37.405333,4 38,4.6368114 38,5.4278282 L 38,39.55292 c 0,0.791016 -0.594667,1.427827 -1.333333,1.427827 C 36.666667,40.980747 30.333333,43 24,43 17.666669,43 11.333334,40.980747 11.333334,40.980747 10.594667,40.980747 10,40.343936 10,39.55292 L 10,5.4278282 C 10,4.6368114 10.594667,4 11.333334,4 z"
       id="path3909"
       style="opacity:0.3;fill:white;fill-opacity:1;stroke:none;filter:url(#filter3915)" />
    <path
       d="m 14.091628,38.049999 a 1.666752,1.666752 0 1 1 -3.333504,0 1.666752,1.666752 0 1 1 3.333504,0 z"
       transform="matrix(1.6499159,0,0,1.6499156,3.4999989,-23.779287)"
       id="path6724"
       style="fill:url(#radialGradient4750);fill-opacity:1;stroke:#787878;stroke-width:0.30304578;stroke-linecap:round;stroke-linejoin:miter;stroke-miterlimit:4;stroke-opacity:1;stroke-dasharray:none" />
    <rect
       width="25.051138"
       height="29.051138"
       rx="0"
       ry="0"
       x="11.474432"
       y="5.4744315"
       id="rect4140"
       style="fill:url(#radialGradient3888);fill-opacity:1;fill-rule:evenodd;stroke:url(#linearGradient3890);stroke-width:0.94886303;stroke-linecap:round;stroke-linejoin:round;stroke-miterlimit:3.42857146;stroke-opacity:1;stroke-dasharray:none;stroke-dashoffset:0;marker:none;visibility:visible;display:inline;overflow:visible;enable-background:accumulate" />
    <path
       d="M 12,6 36,6 36,14.000003 12,21 12,6 z"
       id="rect6588"
       style="fill:url(#linearGradient3884);fill-opacity:1;stroke:none" />
    <rect
       width="3.5"
       height="2.5"
       x="11.25"
       y="37.25"
       id="rect3933"
       style="fill:url(#linearGradient4758);fill-opacity:1;stroke:#787878;stroke-width:0.5;stroke-linejoin:round;stroke-miterlimit:4;stroke-opacity:1;stroke-dasharray:none" />
    <rect
       width="3.5"
       height="2.5"
       x="16.25"
       y="37.25"
       id="rect4770"
       style="fill:url(#linearGradient4772);fill-opacity:1;stroke:#787878;stroke-width:0.5;stroke-linejoin:round;stroke-miterlimit:4;stroke-opacity:1;stroke-dasharray:none" />
    <rect
       width="3.5"
       height="2.5"
       x="28.25"
       y="37.25"
       id="rect4774"
       style="fill:url(#linearGradient4776);fill-opacity:1;stroke:#787878;stroke-width:0.5;stroke-linejoin:round;stroke-miterlimit:4;stroke-opacity:1;stroke-dasharray:none" />
    <rect
       width="3.5"
       height="2.5"
       x="33.25"
       y="37.25"
       id="rect4778"
       style="fill:url(#linearGradient4780);fill-opacity:1;stroke:#787878;stroke-width:0.5;stroke-linejoin:round;stroke-miterlimit:4;stroke-opacity:1;stroke-dasharray:none" />
  </g>
</svg>

<?xml version="1.0" encoding="UTF-8" standalone="no"?>
<!-- Created with Inkscape (http://www.inkscape.org/) -->
<svg id="svg5490" xmlns="http://www.w3.org/2000/svg" height="48" width="48" version="1.1" xmlns:xlink="http://www.w3.org/1999/xlink">
 <defs id="defs5492">
  <linearGradient id="linearGradient4760">
   <stop id="stop4762" style="stop-color:#b3b3b3" offset="0"/>
   <stop id="stop4764" style="stop-color:#fff" offset=".35481"/>
   <stop id="stop4766" style="stop-color:#f0f0f0" offset=".51391"/>
   <stop id="stop4768" style="stop-color:#999" offset="1"/>
  </linearGradient>
  <linearGradient id="linearGradient7693" y2="42.997" gradientUnits="userSpaceOnUse" x2="22.487" gradientTransform="matrix(1.0342 0 0 1.0495 .74342 -.12367)" y1="2.0236" x1="22.487">
   <stop id="stop3145" style="stop-color:#e6e6e6" offset="0"/>
   <stop id="stop3147" style="stop-color:#afafaf" offset="1"/>
  </linearGradient>
  <linearGradient id="linearGradient3881" y2="2" gradientUnits="userSpaceOnUse" x2="22" y1="45" x1="22">
   <stop id="stop3823" style="stop-color:#6c6c6c" offset="0"/>
   <stop id="stop3825" style="stop-color:#a8a8a8" offset="1"/>
  </linearGradient>
  <linearGradient id="linearGradient3884" y2="19.812" gradientUnits="userSpaceOnUse" x2="15.25" gradientTransform="matrix(.57143 0 0 1 10.286 3)" y1="8.4375" x1="12.938">
   <stop id="stop6594-0-2" style="stop-color:#fff;stop-opacity:.27451" offset="0"/>
   <stop id="stop6596-2-5" style="stop-color:#fff;stop-opacity:0" offset="1"/>
  </linearGradient>
  <radialGradient id="radialGradient3888" gradientUnits="userSpaceOnUse" cy="8.4179" cx="19.063" gradientTransform="matrix(1.3637 0 0 2.0986 -7.8705 -4.0977)" r="11">
   <stop id="stop9938" style="stop-color:#575757" offset="0"/>
   <stop id="stop9940" style="stop-color:#333" offset="1"/>
  </radialGradient>
  <linearGradient id="linearGradient3890" y2="13" gradientUnits="userSpaceOnUse" x2="35" gradientTransform="matrix(1.19 0 0 1.9302 -4.5603 -5.0921)" y1="13" x1="13">
   <stop id="stop3739" style="stop-color:#121214" offset="0"/>
   <stop id="stop3741" style="stop-color:#393e44" offset=".093291"/>
   <stop id="stop3743" style="stop-color:#50555b" offset=".50236"/>
   <stop id="stop3745" style="stop-color:#22272d" offset=".91142"/>
   <stop id="stop3747" style="stop-color:#303438" offset="1"/>
  </linearGradient>
  <filter id="filter3915" color-interpolation-filters="sRGB">
   <feGaussianBlur id="feGaussianBlur3917" stdDeviation="0.67"/>
  </filter>
  <radialGradient id="radialGradient3927" gradientUnits="userSpaceOnUse" cy="42.5" cx="26" gradientTransform="matrix(1 0 0 .18421 0 34.671)" r="19">
   <stop id="stop3923" offset="0"/>
   <stop id="stop3925" style="stop-opacity:0" offset="1"/>
  </radialGradient>
  <radialGradient id="radialGradient4750" gradientUnits="userSpaceOnUse" cy="38.05" cx="12.425" r="1.8183">
   <stop id="stop4653" style="stop-color:#b3b3b3" offset="0"/>
   <stop id="stop4655" style="stop-color:#fff" offset=".40689"/>
   <stop id="stop4657" style="stop-color:#f0f0f0" offset=".58683"/>
   <stop id="stop4659" style="stop-color:#999" offset="1"/>
  </radialGradient>
  <linearGradient id="linearGradient4758" y2="40" xlink:href="#linearGradient4760" gradientUnits="userSpaceOnUse" x2="13" y1="37" x1="13"/>
  <linearGradient id="linearGradient4772" y2="40" xlink:href="#linearGradient4760" gradientUnits="userSpaceOnUse" x2="13" gradientTransform="translate(5)" y1="37" x1="13"/>
  <linearGradient id="linearGradient4776" y2="40" xlink:href="#linearGradient4760" gradientUnits="userSpaceOnUse" x2="13" gradientTransform="translate(17)" y1="37" x1="13"/>
  <linearGradient id="linearGradient4780" y2="40" xlink:href="#linearGradient4760" gradientUnits="userSpaceOnUse" x2="13" gradientTransform="translate(22)" y1="37" x1="13"/>
 </defs>
 <g id="layer1">
  <path id="path3919" style="opacity:.4;fill:url(#radialGradient3927)" d="m45 42.5a19 3.5 0 1 1 -38 0 19 3.5 0 1 1 38 0z" transform="matrix(1.0526 0 0 1.1429 -3.3684 -5.5714)"/>
  <path id="rect5508" style="stroke:url(#linearGradient3881);stroke-linecap:round;fill:url(#linearGradient7693)" d="m9.9774 2.5h28.071c0.8185 0 1.4774 0.6858 1.4774 1.5377v36.75c0 0.85186-0.65894 1.5377-1.4774 1.5377 0 0-7.0179 2.1746-14.036 2.1746-7.0179 0-14.036-2.1746-14.036-2.1746-0.8185 0-1.4774-0.6858-1.4774-1.5377v-36.75c0-0.85186 0.65894-1.5377 1.4774-1.5377z"/>
  <path id="path3909" style="opacity:.3;filter:url(#filter3915);fill:#fff" d="m11.333 4h25.334c0.738 0 1.333 0.6368 1.333 1.4278v34.125c0 0.79102-0.59467 1.4278-1.3333 1.4278 0 0-6.334 2.019-12.667 2.019s-12.667-2.019-12.667-2.019c-0.738 0-1.333-0.637-1.333-1.428v-34.125c0-0.7912 0.595-1.428 1.333-1.428z"/>
  <path id="path6724" style="stroke:#787878;stroke-linecap:round;stroke-width:.30305;fill:url(#radialGradient4750)" d="m14.092 38.05a1.6668 1.6668 0 1 1 -3.3335 0 1.6668 1.6668 0 1 1 3.3335 0z" transform="matrix(1.6499 0 0 1.6499 3.5 -23.779)"/>
  <rect id="rect4140" style="stroke-linejoin:round;stroke-width:.94886;fill-rule:evenodd;stroke:url(#linearGradient3890);stroke-linecap:round;stroke-miterlimit:3.4286;fill:url(#radialGradient3888)" rx="0" ry="0" height="29.051" width="25.051" y="5.4744" x="11.474"/>
  <path id="rect6588" style="fill:url(#linearGradient3884)" d="m12 6h24v8l-24 7v-15z"/>
  <rect id="rect3933" style="stroke-linejoin:round;stroke:#787878;stroke-width:.5;fill:url(#linearGradient4758)" height="2.5" width="3.5" y="37.25" x="11.25"/>
  <rect id="rect4770" style="stroke-linejoin:round;stroke:#787878;stroke-width:.5;fill:url(#linearGradient4772)" height="2.5" width="3.5" y="37.25" x="16.25"/>
  <rect id="rect4774" style="stroke-linejoin:round;stroke:#787878;stroke-width:.5;fill:url(#linearGradient4776)" height="2.5" width="3.5" y="37.25" x="28.25"/>
  <rect id="rect4778" style="stroke-linejoin:round;stroke:#787878;stroke-width:.5;fill:url(#linearGradient4780)" height="2.5" width="3.5" y="37.25" x="33.25"/>
 </g>
</svg>
